X: 1
T: Little Katie Kearney
M: 4/4
L: 1/8
R: reel
K: Amix
ed|:cAAG EAAB|cBcd efed|cAAG EAAc|dBGB d2 ed:|
~c3 d efed|cAcd eaae|[c2e2] cd efge|dBGB d2 ed|
[c2e2] cd efed|cAce a2 e/f/g|afbg afge|dBGB d2 ed|
